Image/Logo2.svg

<svg width="116" height="24" viewBox="0 0 116 24" fill="none" xmlns="http://www.w3.org/2000/svg">
<path d="M6.436 5.738H9.154L10.486 9.824L11.818 5.738H14.554L12.376 11.678L13.672 15.08L16.876 5.72H20.098L15.112 18.5H12.556L10.486 13.496L8.434 18.5H5.86L0.892 5.72H4.096L7.318 15.08L8.578 11.678L6.436 5.738ZM30.7304 15.908V18.5H21.7484V5.72H30.5684V8.312H24.7004V10.796H29.7404V13.19H24.7004V15.908H30.7304ZM43.6298 15.224C43.6298 15.956 43.4318 16.568 43.0358 17.06C42.6518 17.54 42.1298 17.9 41.4698 18.14C40.8098 18.38 40.0838 18.5 39.2918 18.5H33.0638V5.72H40.1738C40.7738 5.72 41.2898 5.882 41.7218 6.206C42.1658 6.518 42.5018 6.926 42.7298 7.43C42.9698 7.934 43.0898 8.456 43.0898 8.996C43.0898 9.596 42.9338 10.172 42.6218 10.724C42.3098 11.264 41.8538 11.672 41.2538 11.948C41.9858 12.164 42.5618 12.548 42.9818 13.1C43.4138 13.652 43.6298 14.36 43.6298 15.224ZM40.6238 14.63C40.6238 14.354 40.5698 14.114 40.4618 13.91C40.3538 13.694 40.2098 13.526 40.0298 13.406C39.8618 13.274 39.6578 13.208 39.4178 13.208H36.0158V15.998H39.2918C39.5438 15.998 39.7658 15.938 39.9578 15.818C40.1618 15.698 40.3238 15.536 40.4438 15.332C40.5638 15.128 40.6238 14.894 40.6238 14.63ZM36.0158 8.24V10.886H38.9138C39.1298 10.886 39.3278 10.838 39.5078 10.742C39.6998 10.646 39.8558 10.502 39.9758 10.31C40.0958 10.106 40.1558 9.854 40.1558 9.554C40.1558 9.266 40.1018 9.026 39.9938 8.834C39.8978 8.642 39.7658 8.498 39.5978 8.402C39.4298 8.294 39.2378 8.24 39.0218 8.24H36.0158Z" fill="#4D5AE5"/>
<path d="M53.892 9.464C53.856 9.404 53.73 9.314 53.514 9.194C53.298 9.062 53.028 8.924 52.704 8.78C52.38 8.636 52.026 8.51 51.642 8.402C51.258 8.294 50.874 8.24 50.49 8.24C49.986 8.24 49.596 8.33 49.32 8.51C49.044 8.678 48.906 8.942 48.906 9.302C48.906 9.59 49.008 9.818 49.212 9.986C49.428 10.154 49.734 10.304 50.13 10.436C50.526 10.556 51.012 10.7 51.588 10.868C52.404 11.084 53.112 11.348 53.712 11.66C54.312 11.96 54.768 12.35 55.08 12.83C55.404 13.31 55.566 13.946 55.566 14.738C55.566 15.458 55.434 16.07 55.17 16.574C54.906 17.066 54.546 17.468 54.09 17.78C53.646 18.08 53.136 18.302 52.56 18.446C51.984 18.578 51.39 18.644 50.778 18.644C50.154 18.644 49.512 18.584 48.852 18.464C48.204 18.332 47.58 18.152 46.98 17.924C46.38 17.684 45.828 17.396 45.324 17.06L46.62 14.486C46.668 14.546 46.824 14.66 47.088 14.828C47.352 14.984 47.676 15.152 48.06 15.332C48.456 15.5 48.894 15.65 49.374 15.782C49.854 15.914 50.34 15.98 50.832 15.98C51.36 15.98 51.75 15.896 52.002 15.728C52.266 15.56 52.398 15.326 52.398 15.026C52.398 14.702 52.26 14.45 51.984 14.27C51.72 14.09 51.354 13.928 50.886 13.784C50.43 13.64 49.902 13.478 49.302 13.298C48.522 13.058 47.874 12.788 47.358 12.488C46.854 12.188 46.476 11.822 46.224 11.39C45.984 10.958 45.864 10.418 45.864 9.77C45.864 8.87 46.074 8.114 46.494 7.502C46.926 6.878 47.502 6.41 48.222 6.098C48.942 5.774 49.728 5.612 50.58 5.612C51.18 5.612 51.756 5.684 52.308 5.828C52.872 5.972 53.394 6.152 53.874 6.368C54.366 6.584 54.804 6.8 55.188 7.016L53.892 9.464ZM67.5762 8.312H63.6882V18.5H60.7362V8.312H56.8302V5.72H67.5762V8.312ZM75.0479 18.608C74.0279 18.608 73.1579 18.44 72.4379 18.104C71.7179 17.756 71.1299 17.288 70.6739 16.7C70.2299 16.1 69.8999 15.422 69.6839 14.666C69.4799 13.898 69.3779 13.094 69.3779 12.254V5.72H72.3299V12.254C72.3299 12.734 72.3779 13.202 72.4739 13.658C72.5699 14.102 72.7259 14.498 72.9419 14.846C73.1579 15.194 73.4339 15.47 73.7699 15.674C74.1179 15.878 74.5439 15.98 75.0479 15.98C75.5639 15.98 75.9959 15.878 76.3439 15.674C76.6919 15.458 76.9679 15.176 77.1719 14.828C77.3759 14.468 77.5259 14.066 77.6219 13.622C77.7179 13.178 77.7659 12.722 77.7659 12.254V5.72H80.7179V12.254C80.7179 13.142 80.6039 13.97 80.3759 14.738C80.1599 15.506 79.8239 16.184 79.3679 16.772C78.9119 17.348 78.3239 17.798 77.6039 18.122C76.8959 18.446 76.0439 18.608 75.0479 18.608ZM83.5452 18.5V5.72H88.3152C89.7192 5.72 90.8892 6.008 91.8252 6.584C92.7732 7.148 93.4872 7.916 93.9672 8.888C94.4472 9.848 94.6872 10.916 94.6872 12.092C94.6872 13.388 94.4232 14.516 93.8952 15.476C93.3672 16.436 92.6232 17.18 91.6632 17.708C90.7152 18.236 89.5992 18.5 88.3152 18.5H83.5452ZM91.6812 12.092C91.6812 11.348 91.5492 10.694 91.2852 10.13C91.0212 9.554 90.6372 9.11 90.1332 8.798C89.6292 8.474 89.0232 8.312 88.3152 8.312H86.4972V15.908H88.3152C89.0352 15.908 89.6412 15.746 90.1332 15.422C90.6372 15.086 91.0212 14.63 91.2852 14.054C91.5492 13.466 91.6812 12.812 91.6812 12.092ZM96.9699 18.5V5.72H99.9219V18.5H96.9699ZM108.504 18.608C107.544 18.608 106.674 18.428 105.894 18.068C105.126 17.696 104.46 17.204 103.896 16.592C103.344 15.968 102.918 15.272 102.618 14.504C102.318 13.724 102.168 12.92 102.168 12.092C102.168 11.24 102.324 10.43 102.636 9.662C102.96 8.894 103.404 8.21 103.968 7.61C104.544 6.998 105.222 6.518 106.002 6.17C106.782 5.822 107.634 5.648 108.558 5.648C109.506 5.648 110.364 5.834 111.132 6.206C111.912 6.566 112.578 7.058 113.13 7.682C113.694 8.306 114.126 9.008 114.426 9.788C114.726 10.556 114.876 11.342 114.876 12.146C114.876 12.998 114.72 13.808 114.408 14.576C114.096 15.344 113.652 16.034 113.076 16.646C112.5 17.246 111.822 17.726 111.042 18.086C110.274 18.434 109.428 18.608 108.504 18.608ZM105.174 12.128C105.174 12.62 105.246 13.1 105.39 13.568C105.534 14.024 105.744 14.432 106.02 14.792C106.308 15.152 106.662 15.44 107.082 15.656C107.502 15.872 107.982 15.98 108.522 15.98C109.086 15.98 109.578 15.872 109.998 15.656C110.418 15.428 110.766 15.128 111.042 14.756C111.318 14.384 111.522 13.97 111.654 13.514C111.798 13.046 111.87 12.572 111.87 12.092C111.87 11.6 111.798 11.126 111.654 10.67C111.51 10.214 111.294 9.806 111.006 9.446C110.718 9.074 110.364 8.786 109.944 8.582C109.524 8.378 109.05 8.276 108.522 8.276C107.958 8.276 107.466 8.384 107.046 8.6C106.638 8.816 106.29 9.11 106.002 9.482C105.726 9.842 105.516 10.256 105.372 10.724C105.24 11.18 105.174 11.648 105.174 12.128Z" fill="#F4F4FD"/>
</svg>

<svg xmlns="http://www.w3.org/2000/svg" width="116" height="24" fill="none"><path fill="#4D5AE5" d="M6.436 5.738h2.718l1.332 4.086 1.332-4.086h2.736l-2.178 5.94 1.296 3.402 3.204-9.36h3.222L15.112 18.5h-2.556l-2.07-5.004L8.434 18.5H5.86L.892 5.72h3.204l3.222 9.36 1.26-3.402-2.142-5.94Zm24.294 10.17V18.5h-8.982V5.72h8.82v2.592H24.7v2.484h5.04v2.394H24.7v2.718h6.03Zm12.9-.684c0 .732-.198 1.344-.594 1.836-.384.48-.906.84-1.566 1.08-.66.24-1.386.36-2.178.36h-6.228V5.72h7.11c.6 0 1.116.162 1.548.486.444.312.78.72 1.008 1.224.24.504.36 1.026.36 1.566 0 .6-.156 1.176-.468 1.728-.312.54-.768.948-1.368 1.224.732.216 1.308.6 1.728 1.152.432.552.648 1.26.648 2.124Zm-3.006-.594c0-.276-.054-.516-.162-.72a1.275 1.275 0 0 0-.432-.504.96.96 0 0 0-.612-.198h-3.402v2.79h3.276c.252 0 .474-.06.666-.18.204-.12.366-.282.486-.486.12-.204.18-.438.18-.702Zm-4.608-6.39v2.646h2.898c.216 0 .414-.048.594-.144.192-.096.348-.24.468-.432.12-.204.18-.456.18-.756 0-.288-.054-.528-.162-.72a.992.992 0 0 0-.396-.432 1.042 1.042 0 0 0-.576-.162h-3.006Z"/><path fill="#F4F4FD" d="M53.892 9.464c-.036-.06-.162-.15-.378-.27a7.842 7.842 0 0 0-1.872-.792 4.238 4.238 0 0 0-1.152-.162c-.504 0-.894.09-1.17.27-.276.168-.414.432-.414.792 0 .288.102.516.306.684.216.168.522.318.918.45.396.12.882.264 1.458.432.816.216 1.524.48 2.124.792.6.3 1.056.69 1.368 1.17.324.48.486 1.116.486 1.908 0 .72-.132 1.332-.396 1.836a3.37 3.37 0 0 1-1.08 1.206c-.444.3-.954.522-1.53.666a7.952 7.952 0 0 1-1.782.198c-.624 0-1.266-.06-1.926-.18a12.008 12.008 0 0 1-1.872-.54 9 9 0 0 1-1.656-.864l1.296-2.574c.048.06.204.174.468.342.264.156.588.324.972.504.396.168.834.318 1.314.45.48.132.966.198 1.458.198.528 0 .918-.084 1.17-.252.264-.168.396-.402.396-.702a.854.854 0 0 0-.414-.756c-.264-.18-.63-.342-1.098-.486-.456-.144-.984-.306-1.584-.486-.78-.24-1.428-.51-1.944-.81-.504-.3-.882-.666-1.134-1.098-.24-.432-.36-.972-.36-1.62 0-.9.21-1.656.63-2.268a3.979 3.979 0 0 1 1.728-1.404 5.68 5.68 0 0 1 2.358-.486c.6 0 1.176.072 1.728.216a9.594 9.594 0 0 1 1.566.54c.492.216.93.432 1.314.648l-1.296 2.448Zm13.684-1.152h-3.888V18.5h-2.952V8.312H56.83V5.72h10.746v2.592Zm7.472 10.296c-1.02 0-1.89-.168-2.61-.504a4.875 4.875 0 0 1-1.764-1.404 6.292 6.292 0 0 1-.99-2.034 9.357 9.357 0 0 1-.306-2.412V5.72h2.952v6.534c0 .48.048.948.144 1.404.096.444.252.84.468 1.188.216.348.492.624.828.828.348.204.774.306 1.278.306.516 0 .948-.102 1.296-.306.348-.216.624-.498.828-.846.204-.36.354-.762.45-1.206.096-.444.144-.9.144-1.368V5.72h2.952v6.534c0 .888-.114 1.716-.342 2.484a5.877 5.877 0 0 1-1.008 2.034 4.628 4.628 0 0 1-1.764 1.35c-.708.324-1.56.486-2.556.486Zm8.497-.108V5.72h4.77c1.404 0 2.574.288 3.51.864a5.432 5.432 0 0 1 2.142 2.304c.48.96.72 2.028.72 3.204 0 1.296-.264 2.424-.792 3.384a5.55 5.55 0 0 1-2.232 2.232c-.948.528-2.064.792-3.348.792h-4.77Zm8.136-6.408c0-.744-.132-1.398-.396-1.962a2.984 2.984 0 0 0-1.152-1.332c-.504-.324-1.11-.486-1.818-.486h-1.818v7.596h1.818c.72 0 1.326-.162 1.818-.486a3.216 3.216 0 0 0 1.152-1.368c.264-.588.396-1.242.396-1.962ZM96.97 18.5V5.72h2.952V18.5H96.97Zm11.534.108c-.96 0-1.83-.18-2.61-.54a6.604 6.604 0 0 1-1.998-1.476 6.94 6.94 0 0 1-1.278-2.088c-.3-.78-.45-1.584-.45-2.412 0-.852.156-1.662.468-2.43a6.869 6.869 0 0 1 1.332-2.052 6.202 6.202 0 0 1 4.59-1.962c.948 0 1.806.186 2.574.558.78.36 1.446.852 1.998 1.476a6.706 6.706 0 0 1 1.296 2.106c.3.768.45 1.554.45 2.358 0 .852-.156 1.662-.468 2.43a6.649 6.649 0 0 1-1.332 2.07 6.657 6.657 0 0 1-2.034 1.44c-.768.348-1.614.522-2.538.522Zm-3.33-6.48c0 .492.072.972.216 1.44.144.456.354.864.63 1.224.288.36.642.648 1.062.864.42.216.9.324 1.44.324.564 0 1.056-.108 1.476-.324.42-.228.768-.528 1.044-.9s.48-.786.612-1.242a4.81 4.81 0 0 0 0-2.844 3.745 3.745 0 0 0-.648-1.224 2.965 2.965 0 0 0-1.062-.864 3.213 3.213 0 0 0-1.422-.306c-.564 0-1.056.108-1.476.324-.408.216-.756.51-1.044.882a3.91 3.91 0 0 0-.63 1.242 5.024 5.024 0 0 0-.198 1.404Z"/></svg>
